X:1
T:Ja-da
C:1918 - Bob Carleton
Z:Copyright © www.realbook.site
L:1/8
M:4/4
I:linebreak $
K:G
V:1 treble nm=" " snm=" "
V:1
"G" Bd- d6 |"E7" eB- B6 |"A7" BABA"D7" d B2 G- |"G" G4"D7" z4 ||$"G" Bd- d6 |"E7" eB- B6 | %6
"A7" BABA B _B2 A- |"D7" A4 z4 ||$"G" d2 d2"Gdim" ^c2 c2 |"Am7" =cBcA-"D7" A4 | %10
"G" d2 d2"Gdim" ^c2 c2 |"Am7" =cBcA-"D7" A4 ||$"G" Bd- d6 |"E7" eB- B6 |"A7" BABA"D7" d B2 G- | %15
"G" G3 ^G-"E7" G4 |"A7" BABA"D7" d B2 =G- |"G" G8 |] %18

